dist/system/icons/library.svg

<svg xmlns="http://www.w3.org/2000/svg" viewBox="0 0 24 24"><path d="M6 6h-6v-6h6v6zm9-6h-6v6h6v-6zm9 0h-6v6h6v-6zm-18 9h-6v6h6v-6zm9 0h-6v6h6v-6zm9 0h-6v6h6v-6zm-18 9h-6v6h6v-6zm9 0h-6v6h6v-6zm9 0h-6v6h6v-6z"/></svg>

<path d="M6 6H0V0h6v6zm9-6H9v6h6V0zm9 0h-6v6h6V0zM6 9H0v6h6V9zm9 0H9v6h6V9zm9 0h-6v6h6V9zM6 18H0v6h6v-6zm9 0H9v6h6v-6zm9 0h-6v6h6v-6z" />
